X: 216
T: The Aerostick
%R: slip-jig
B: "Twenty Four Country Dances for the Year 1793", Preston & Son, eds. p.88
F: http://www.vwml.org/browse/browse-collections-dance-tune-books/browse-prestons1793# 2014-8-7
Z: 2014 John Chambers <jc:trillian.mit.edu>
M: 9/8
L: 1/8
K: D
|:\
DFA dcB AFD | DFA ded c2A |\
fgf edc Bcd | ABA dAF E2F :|
|:\
D2d dcB c2A | E2e efg f2d |\
afd cBA Bcd | ABA dAF E2F :|
% = = = = = = = = = = = = = = = = = = = = = = = = =
%%begintext align
%% Change sides and back
%% again .| Lead down the
%% middle up again & cast off :|
%% Hands 4 at bottom :|.
%% Right and Left at top :|:
%%endtext
% = = = = = = = = = = = = = = = = = = = = = = = = =

%%sep 1 1 500
%%sep 1 1 500
